svgs/sharp-solid/house-chimney-medical.svg

<svg xmlns="http://www.w3.org/2000/svg" viewBox="0 0 576 512"><!--! Font Awesome Pro 6.6.0 by @fontawesome - https://fontawesome.com License - https://fontawesome.com/license (Commercial License) Copyright 2024 Fonticons, Inc. --><path d="M576 287.6l-64.2 0 1 224.4L64.1 512l0-224.4L0 287.6 0 240 288.4 0 416 106.5 416 32l96 0 0 154.6L576 240l0 47.6zM320 192l-64 0 0 64-64 0 0 64 64 0 0 64 64 0 0-64 64 0 0-64-64 0 0-64z"/></svg>

<svg xmlns="http://www.w3.org/2000/svg" viewBox="0 0 576 512"><!--! Font Awesome Pro 6.4.0 by @fontawesome - https://fontawesome.com License - https://fontawesome.com/license (Commercial License) Copyright 2023 Fonticons, Inc. --><path d="M576 287.6H511.8l1 224.4H64.1V287.6H0V240L288.4 0 416 106.5V32h96V186.6L576 240v47.6zM320 192H256v64H192v64h64v64h64V320h64V256H320V192z"/></svg>
